Icons/Colored/House.svg

<svg xmlns="http://www.w3.org/2000/svg" xml:space="preserve" fill-rule="evenodd" stroke-linejoin="round" stroke-miterlimit="2" clip-rule="evenodd" viewBox="0 0 64 64">
  <g id="grey">
    <path fill="#b5b5b5" d="m7.914 19.73 12.109-8.527L31.914 28.68l.086.032v31.724l-8.664-4.273V42.668l-6.832-3.464v13.522l-8.59-4.245V19.73Z"/>
    <path fill="#929090" d="m56.086 19.73-.16 28.751L32 60.436V28.712l24.086-8.982ZM43.039 35.359l-7.668 3.668v9.396l7.668-3.668v-9.396Zm10.805-5.035-7.668 3.664v9.399l7.668-3.668v-9.395Z"/>
  </g>
  <g id="red">
    <path fill="#ff2721" d="m32 28.712-.086-.032-11.891-17.477 22.961-7.688L56.086 19.73 32 28.712Z"/>
  </g>
</svg>

<?xml version="1.0" encoding="UTF-8" standalone="no"?>
<!DOCTYPE svg PUBLIC "-//W3C//DTD SVG 1.1//EN" "http://www.w3.org/Graphics/SVG/1.1/DTD/svg11.dtd">
<svg width="100%" height="100%" viewBox="0 0 64 64" version="1.1" xmlns="http://www.w3.org/2000/svg" xmlns:xlink="http://www.w3.org/1999/xlink" xml:space="preserve" xmlns:serif="http://www.serif.com/" style="fill-rule:evenodd;clip-rule:evenodd;stroke-linejoin:round;stroke-miterlimit:2;">
    <g id="surface1">
        <path d="M31.926,60.484L7.914,48.481L7.914,19.73L20.023,11.203L42.984,3.515L56.086,19.73L55.926,48.481L31.926,60.472L31.926,60.484ZM23.336,56.192L23.336,42.668L16.504,39.204L16.504,52.726L23.336,56.192ZM43.039,35.359L35.371,39.027L35.371,48.423L43.039,44.755L43.039,35.359ZM53.844,30.324L46.176,33.988L46.176,43.387L53.844,39.719L53.844,30.324Z" style="fill:#ff2721;"/>
        <path d="M7.914,19.73L20.023,11.203L31.914,28.68L7.914,19.73Z" style="fill:#b5b5b5;"/>
        <path d="M56.086,19.73L55.926,48.481L32,60.436L32,28.712L56.086,19.73ZM43.039,35.359L35.371,39.027L35.371,48.423L43.039,44.755L43.039,35.359ZM53.844,30.324L46.176,33.988L46.176,43.387L53.844,39.719L53.844,30.324Z" style="fill:#929090;"/>
        <path d="M7.914,48.481L7.914,19.73L32,28.712L31.914,60.436L23.336,56.163L23.336,42.668L16.504,39.204L16.504,52.726L20.141,54.571L7.914,48.481Z" style="fill:#b5b5b5;"/>
    </g>
    <g id="Layer3">
    </g>
</svg>
